X: 48
T: Pollonesse #48
M: 3/4
L: 1/16
K: D
Q:100
|d4A4F4|G2B2 E2G2 GFED|[D2A2][D2A2] [E2B2][E2B2] [E2c2][E2c2]|d2ef gfed c2BA|
d4A4GFEF|GABG EFGE GFED|DEFG ABcd efga|bgec d4D4:|
|:defg agab efge|fefg a2c2d4| dcde g2d2B2d2|dcde gfed c2BA:|

